X:209
T:Caledonian Laddie
D:The Loose Moose Ceilidh Band
Z:Nigel Gatherer
R:Hornpipe
M:4/4
L:1/8
K:D
FE|D3 E FEFA|BABd e2 f2|dcBA GBFA|G2 E2 EGFE|D3 E FEFA|
BABd e2 f2|dcBA GBEG|F2 D2 D2::de|f3 f gfed|cdec A2 Bc|
d2 B2 Bcde|f2 B2 B2 d2|A3 B AFED|gfge fefd|edcB ABde|f2 d2 d2:|
<end>
<start>
